lib/functional/brands/whatsapp-logo.svg

<svg xmlns="http://www.w3.org/2000/svg" fill="none" stroke="currentColor" aria-hidden="true" viewBox="0 0 32 32"><g id="Icon-WhatsappLogo"><g clip-path="url(#clip0_11_3417)"><g id="size=md (32px)"><path id="Vector" stroke-linecap="round" stroke-linejoin="round" stroke-width="2" d="M5.67534 22.125C4.18645 19.613 3.66565 16.6439 4.21072 13.7752C4.75579 10.9064 6.32925 8.33525 8.63569 6.54438C10.9421 4.75352 13.823 3.86611 16.7373 4.04875C19.6517 4.2314 22.3992 5.47153 24.464 7.53634C26.5288 9.60115 27.7689 12.3486 27.9516 15.263C28.1342 18.1774 27.2468 21.0582 25.4559 23.3646C23.6651 25.6711 21.0939 27.2445 18.2252 27.7896C15.3564 28.3347 12.3873 27.8139 9.87534 26.325V26.325L5.72534 27.5C5.55531 27.5497 5.37503 27.5528 5.20341 27.5089C5.03178 27.465 4.87513 27.3757 4.74986 27.2504C4.6246 27.1252 4.53534 26.9685 4.49144 26.7969C4.44753 26.6253 4.45061 26.445 4.50034 26.275L5.67534 22.125Z"/><path id="Vector_2" stroke-linecap="round" stroke-linejoin="round" stroke-width="2" d="M19.0125 23C17.6967 23.0033 16.3933 22.7466 15.177 22.2446C13.9608 21.7426 12.8557 21.0052 11.9253 20.0748C10.9949 19.1444 10.2575 18.0393 9.75547 16.823C9.25346 15.6068 8.99673 14.3033 9.00003 12.9875C9.00334 12.0614 9.37355 11.1744 10.0296 10.5207C10.6856 9.86705 11.5739 9.50002 12.5 9.50003V9.50003C12.6528 9.49881 12.8031 9.5388 12.9351 9.61579C13.0671 9.69278 13.1759 9.80392 13.25 9.93753L14.7125 12.4875C14.7995 12.6425 14.8441 12.8177 14.8419 12.9955C14.8397 13.1732 14.7908 13.3472 14.7 13.5L13.525 15.4625C14.1269 16.8014 15.1987 17.8732 16.5375 18.475L18.5 17.3C18.6529 17.2093 18.8269 17.1603 19.0046 17.1581C19.1823 17.1559 19.3575 17.2006 19.5125 17.2875L22.0625 18.75C22.1961 18.8242 22.3073 18.933 22.3843 19.0649C22.4613 19.1969 22.5013 19.3472 22.5 19.5C22.4968 20.4251 22.1287 21.3116 21.4757 21.9669C20.8227 22.6222 19.9376 22.9934 19.0125 23V23Z"/></g></g></g><defs><clipPath id="clip0_11_3417"><rect width="32" height="32" fill="white" rx="5"/></clipPath></defs></svg>

<svg xmlns="http://www.w3.org/2000/svg" fill="none" stroke="currentColor" aria-hidden="true" viewBox="0 0 32 32"><g stroke="#101828" stroke-linecap="round" stroke-linejoin="round" stroke-width="2" clip-path="url(#a)"><path d="M5.675 22.125a11.988 11.988 0 1 1 4.2 4.2v0L5.725 27.5A.988.988 0 0 1 4.5 26.275l1.175-4.15Z"/><path d="M19.012 23A9.988 9.988 0 0 1 9 12.988 3.5 3.5 0 0 1 12.5 9.5v0a.85.85 0 0 1 .75.438l1.463 2.55A1.012 1.012 0 0 1 14.7 13.5l-1.175 1.963a6 6 0 0 0 3.013 3.012L18.5 17.3a1.014 1.014 0 0 1 1.012-.012l2.55 1.462a.851.851 0 0 1 .438.75 3.512 3.512 0 0 1-3.488 3.5v0Z"/></g><defs><clipPath id="a"><rect width="32" height="32" fill="#fff" rx="5"/></clipPath></defs></svg>
